X: 33971
T: Redican's Mother
R: slip jig
M: 9/8
K: Edorian
|:FAA FAd AFD|FAA FAd B2A|FAA FAd AFD|EDB, DFA B2A:|
|:f2f faf edB|A2f fef g2e|f2f faf edB|AFE DFA B2A:|

